X:2225
T:Brudemarsch \#1
S:Charlie Saksena
R:Sonderh\o{}ning
O:Denmark
M:2/4
A:Fan\o{}
K:EMix
e2ed c2cd|edcB A2A2|f2fe c2d2|e4 e4 :: \
K:ADor
e2e2 a2a2 | g4 gfef|
g2gf e2d2|c4 cBcd|e2e2 A3B|c2cA B2BG |1 \
B2A2 AB^cd :|2 B2A2 A4 ||


